X:1
T:A Beautiful Life
T:A Beautiful Life
T:William H. Golden, 1918
T:William H. Golden, 1918
T:Public Domain
T:Public Domain
C:William H. Golden, 1918
Z:William H. Golden, 1918
Z:Public Domain
%%score ( 1 2 ) ( 3 4 )
L:1/8
Q:1/4=90
M:4/4
K:C
V:1 treble nm="Soprano"
V:2 treble 
V:3 bass nm="Bass"
V:4 bass 
V:1
 [Ec] [Ge] [Fd] | [Ec]4 [Ec] [Fd] [Ac] [FA] | [EG]4 [EG] [EG] [DB] [Ec] | %3
w: 1.~Each day I’ll|do _ a gold- en|deed, _ By help- ing|
w: 2.~To be a|child _ of God each|day, _ My light must|
w: 3.~The on- ly|life _ that will en-|dure, _ Is one that’s|
w: 4.~I’ll help some-|one _ in time of|need, _ And jour- ney|
w: 5.~While go- ing|down _ life’s wea- ry|road, _ I’ll try to|
 [Fd]4 [Fd] [Fd] [Ec] [Fd] | [Ge]4 [Ge] | [Ec] [Ge] [Fd] | [Ec]4 [Ec] [Fd] [Ac] [FA] | %7
w: those _ who are in|need; _|My life on|earth _ is but a|
w: shine _ a- long the|way; _|I’ll sing His|praise _ while a- ges|
w: kind _ and good and|pure; _|And so for|God _ I’ll take my|
w: on _ with rap- id|speed; _|I’ll help the|sick _ and poor and|
w: lift _ some trav- ’ler’s|load; _|I’ll try to|turn _ the night to|
 [EG]4 [EG] [EG] [FA] [Ac] | [Ge]4 [Ge] [Ec] [Fd] [Fd] | c4 c ||"^Refrain" z3 | %11
w: span, _ And so I’ll|do _ the best I|can. _||
w: roll, _ And strive to|help _ some trou- bled|soul. _||
w: stand, _ Each day I’ll|lend _ a help- ing|hand. _||
w: weak, _ And words of|kind- _ ness to them|speak. _||
w: day, _ Make flow- ers|bloom _ a- long the|way. _||
 z [EG][FA][FA] [EG] z3 | z [FA][FA][FA] [FA] z3 | z [DG][DG][DG] [DG] z3 | z [EG][FA] [FA] [EG] | %15
w: ||||
w: ||||
w: ||||
w: ||||
w: ||||
 [Ec] [Ge] [Fd] | [Ec]4 [Ec] [Fd] [Ac] [FA] | [EG]4 [EG] [EG] [FA] [Ac] | %18
w: To meet the|deeds _ that I have|done, _ Where there will|
w: |||
w: |||
w: |||
w: |||
 [Ge]4 [Ge] [Ec] [Fd] [Fd] | c4 c |] %20
w: be _ no set- ting|sun. _|
w: ||
w: ||
w: ||
w: ||
V:2
 x3 | x8 | x8 | x8 | x5 | x3 | x8 | x8 | x8 | E E F ^D E || z z2 | x8 | x8 | x8 | x5 | x3 | x8 | %17
 x8 | x8 | E E F ^D E |] %20
V:3
 z3 | z [C,G,][C,G,][C,G,] [C,G,] z3 | z [C,C][C,C][C,C] [C,C] z3 | %3
 z [G,B,][G,B,][G,B,] [G,B,] z3 | z [C,C][C,C] [C,C] [C,C] | z3 | z [C,G,][C,G,][C,G,] [C,G,] z3 | %7
 z [C,C][C,C][C,C] [C,C] z3 | z [G,C][G,C][G,C] [G,C] [A,C] [G,B,] [G,B,] | C G,A,^F, G, || z3 | %11
 z CCC C z3 | z CCC C z3 | z B,B,B, B, z3 | z CC C C | z3 | z [C,G,][C,G,][C,G,] [C,G,] z3 | %17
 z [C,C][C,C][C,C] [C,C] z3 | z [G,C][G,C][G,C] [G,C] [A,C] [G,B,] [G,B,] | C G,A,^F, G, |] %20
V:4
 x3 | x8 | x8 | x8 | x5 | x3 | x8 | x8 | x8 | C,4 C, || C, E, D, | C,4 C, C,D,E, | F,4 F, D,E,F, | %13
w: ||||||||||Life’s eve- ning|sun _ is sink- ing|low, _ A few more|
 G,4 G, G,,A,,B,, | C,4 C, | x3 | x8 | x8 | x8 | C,4 C, |] %20
w: days, _ and I must|go _||||||

